X: 1434
T: An Ugly Customer
R: reel
M: 4/4
K: Amajor
EAcA eAcA|EAce dB B2|EAcA eAcA|afed cABG|
EAcA eAcA|EAce dBBg|agae faec|dBed cA A2|
agae fefg|afec dBBe|agae faec|dBed cAAe|
agae faec|dBcA BF F2|EFED EFAB|ceBd cA A2|

